!!!OTL: 698b. Truebsinn.
!!!ODT: 1852
!!!ARE: Europa, Mitteleuropa, Deutschland, Oderberg, Hohen Saathen
!!!SCT: E0698B
!!!TXL: @@DE
!!!YEM: Copyright 1995, estate of Helmut Schaffrath.
**kern	**text
*ICvox	*
*M3/4	*
*k[b-e-]	*
*B-:	*
!LO:TX:a:t=Langsam.	!
!LO:TX:a:t=Aus Hohen Saathen bei Oderberg 1852.	!
{8f	Jſt
8d	Al-
8e-	-les
=1	=1
8gL	dun-
8fJ	.
8f	-kel,
8f	iſt
8d	Al-
8f	-les
=2	=2
(8b-L	trü-
8ddJ)	.
8dd}	-be,
{8dd	die-
8cc	-weil
8b-	mein
=3	=3
(4cc	Schatʒ
8ee-)	.
8ee-	ein'
8cc	Andern
8a	.
=4	=4
4b-	liebt.
8r}	.
{8dd	Er
8dd	hat
8b-	ge-
=5	=5
(4cc	-ſagt,
8ee-)	.
8ee-	er
8cc	lie-
8a	-bet
=6	=6
(8b-L	mich,
8dd	.
8ffJ)}	.
{8ff	ja
8dd	a-
8b-	-ber
=7	=7
(4cc	nein,
8ee-)	.
8ee-	er
8cc	haſ-
8a	-ſet
=8	=8
4b-	mich.
8r}	.
{8dd	Er
8dd	hat
8b-	ge-
=9	=9
(4cc	-ſagt,
8ee-)	.
8ee-	er
8cc	lie-
8a	-bet
=10	=10
(8b-L	mich,
8dd	.
8ffJ)}	.
{8ff	ja
8dd	a-
8b-	-ber
=11	=11
(4cc	nein,
8ee-)	.
8ee-	er
8cc	haſ-
8a	-ſet
=12	=12
4b-	mich.
8r}	.
==	==
!!!AGN: Liebes - Lied, Leid, Klage
!!!ONB: ESAC (Essen Associative Code) Database: ERK2
!!!AMT: simple triple
!!!AIN: vox
!!!EED: Helmut Schaffrath
!!!EEV: 1.0
!!!GTL: Liebeslieder [Neuere (aus dem 18. bis 19. Jahrh.) - Liebesleid] 678-740
!!!URL-scan: https://rosdok.uni-rostock.de/mcrviewer/recordIdentifier/rosdok_ppn745177662/iview2/phys_0501.iview2?x=152.6445073938969&y=2075.7646158747375&scale=0.7029437510502773&rotation=0&layout=singlePageLayout
!!!ENC: Anna Maria Matuszewska
!!!EEV: 2024/12/16
*-	*-
